!!!COM: Scarlatti, Domenico
!!!CDT: 1685-1757
!!!OTL: Sonata in B-flat major, L.319, K.442
!!!SCT: K. 442
!!!SCT: L. 319
!!!OMD: Allegro ([quarter-dot]=80)
**kern	**kern	**dynam
*staff2	*staff1	*staff1/2
*Icemba	*Icemba	*
*I"L.319 (K.442)	*I"L.319 (K.442)	*
*>[A,A,B,B]	*>[A,A,B,B]	*>[A,A,B,B]
*>norep[A,B]	*>norep[A,B]	*>norep[A,B]
*>A	*>A	*>A
*clefG2	*clefG2	*
*k[b-e-]	*k[b-e-]	*
*B-:	*B-:	*
*M3/8	*M3/8	*
*MM120	*MM120	*
=1-	=1-	=1-
8r	8bb-MM	f
8b-' 8dd'L	8r	.
8a' 8cc'J	8r	.
=2	=2	=2
8r	8bb-MM	.
8g' 8b-'L	8r	.
8f' 8a'J	8r	.
=3	=3	=3
8r	8bb-MM	.
8e-' 8g'L	8r	.
8d' 8f'J	8r	.
*clefF4	*	*
=4	=4	=4
(8e-L	(16bb-LL	.
.	16gg	.
8f')	16ff	.
.	16ee-	.
8F'J	16dd	.
.	16ccJJ)	.
*clefG2	*	*
!!LO:LB:g=z
=5	=5	=5
8r	(16bb-LLM	p
.	16aaJJ)	.
8b-' 8dd'L	4bb-	.
8a' 8cc'J	.	.
=6	=6	=6
8r	(16bb-LLM	.
.	16aaJJ)	.
8g' 8b-'L	4bb-	.
8f' 8a'J	.	.
=7	=7	=7
8r	(16bb-LLM	.
.	16aaJJ)	.
8e-' 8g'L	4bb-	.
8d' 8f'J	.	.
*clefF4	*	*
=8	=8	=8
(8e-L	16bb-LL	.
.	16gg	.
8f')	16ff	.
.	16ee-	.
8F'J	16dd	.
.	16ccJJ	.
=9	=9	=9
4.BB-^	16b-LL	<
.	16g	.
.	16f	.
.	16e-	.
.	16d	.
.	16cJJ	.
*	*clefF4	*clefF4
!!LO:LB:g=z
=10	=10	=10
4.r	16B-LL	.
.	16G	.
.	16F	.
.	16E-	.
.	16D	.
.	16CJJ	.
=11	=11	=11
16BB-LL	4.r	.
16GG	.	.
16FF	.	.
16EE-	.	.
16DD	.	.
16CCJJ	.	.
*	*clefG2	*clefG2
=12	=12	=12
4BBB-^N)	8r	.
.	4b-^ 4bb-^	f
8B-'	.	.
=13	=13	=13
(4c	(16aaLL	.
.	16gg	.
.	16ff#	.
.	16ee-X	.
8d	16dd	.
.	16ccJJ	.
=14	=14	=14
4e-)	16ggLL	.
.	16b-	.
.	16a	.
.	16ff#)	.
8E-'	(16ff#	.
.	16ggJJ)	.
!!LO:LB:g=z
=15	=15	=15
8.D^L	8gg'	.
.	4aamm	p
(16cL	.	.
16B-	.	.
16AJJ	.	.
=16	=16	=16
8.GL	8r	.
.	4b-^ 4bb-^	.
16FL	.	.
16E-	.	.
16DJJ	.	.
=17	=17	=17
8C'L)	(16aaLL	.
.	16gg	.
(8c	16ff#	<
.	16ee-	.
8dJ	16dd	.
.	16ccJJ	.
=18	=18	=18
4e-)	16ggLL	.
.	16b-	.
.	16a	.
.	16ff#)	.
8E-'	(16ff#	.
.	16ggJJ)	.
=19	=19	=19
8.D^L	8gg'	f
.	4aaMM	.
(16dL	.	.
16c	.	.
16BnJJ	.	.
!!LO:LB:g=z
=20	=20	=20
8.AL	8r	.
.	4cc^ 4ccc^	.
16gL	.	.
16f	.	.
16enJJ	.	.
=21	=21	=21
4d)	(16bbnLL	.
.	16aa	.
.	16gg#	.
.	16ffn	.
8en'	16een	.
.	16ddJJ	.
=22	=22	=22
4f	16aaLL	.
.	16cc	.
.	16bn	.
.	16gg#)	.
8F'	(16gg#	.
.	16aaJJ)	.
=23	=23	=23
8.En^L	8aa'	.
.	4bbnmm	.
(16dL	.	.
16c	.	.
16BnJJ	.	.
=24	=24	=24
8.AL	8r	.
.	4cc^ 4ccc^	.
16GL	.	.
16F	.	.
16EnJJ	.	.
!!LO:LB:g=z
=25	=25	=25
8D'L)	(16bbnLL	.
.	16aa	.
(8d	16gg#	.
.	16ff	.
8enJ	16een	.
.	16ddJJ	.
=26	=26	=26
4f)	16aaLL	.
.	16cc	.
.	16bn	.
.	16gg#)	.
8F'	(16gg#	.
.	16aaJJ)	.
=27	=27	=27
4.EEn^	8aa'	.
.	4bbnmm	.
=28	=28	=28
(4En	(16gg#LL	p
.	16aa	.
.	16bbn	.
.	16ff	.
8G#	16een	.
.	16ddJJ	.
=29	=29	=29
4A	16cc#LL	.
.	16dd	.
.	16een	.
.	16b-X	.
8c#	16a	.
.	16gJJ	.
!!LO:LB:g=z
=30	=30	=30
8d'L)	16fLL	<
.	16dd	.
8c#'	16g	.
.	16een	.
8d'J	16a	.
.	16ffJJ	.
=31	=31	=31
8B-'L	16b-LL	.
.	16gg	.
8F'	16dd	.
.	16aa	.
8G'J	16dd	.
.	16bb-JJ)	.
=32	=32	=32
.	(16ddqq	.
!	!	!LO:DY:rj
4.AA^	(8.cc#mL)	f
.	16bnk	.
.	8aJ)	.
=33	=33	=33
(16aLL	(8.eenL	f
16en	.	.
16c#	.	.
16AJJ)	16ffL	.
8DD'	16gg	.
.	16aaJJ)	.
!!LO:LB:g=z
=34	=34	=34
4.AAA^	(16aaLL	.
.	16gg)	.
.	(16gg	.
.	16ff	.
.	16een	.
.	16ddJJ	.
=35	=35	=35
(16aLL	8.eenL	.
16en	.	.
16c#	.	.
16AJJ)	16ffL	.
8DD'	16gg	.
.	16aaJJ)	.
=36	=36	=36
4.AAA^	(16aaLL	.
.	16gg)	.
.	(16gg	.
.	16ff	.
.	16een	.
.	16ddJJ	.
=37	=37	=37
(16aLL	8.eenL	.
16en	.	.
16c#	.	.
16AJJ)	16ffL	.
8DD'	16gg	.
.	16aaJJ	.
=38	=38	=38
4AAA^	16ggLL	.
.	16ff	.
.	16een	.
.	16dd	.
(8AA	16cc#	.
.	16eeJJ	.
!!LO:LB:g=z
=39	=39	=39
8BB-'L)	16ddLL	.
.	16ff	.
8GG'	16een	.
.	16gg	.
8AA'J	16ff	.
.	16eeJJ	.
=40	=40	=40
4.DD^	16ddLL	.
.	16aa	.
.	16ff	.
.	16dd	.
.	16a	.
.	16ddJJ	.
=41	=41	=41
(16aLL	(8.eenL)	p
16en	.	.
16c#	.	.
16AJJ)	16ffL	.
8DD'	16gg	.
.	16aaJJ)	.
=42	=42	=42
4.AAA^	(16aaLL	.
.	16gg)	.
.	(16gg	.
.	16ff	.
.	16een	.
.	16ddJJ	.
=43	=43	=43
(16aLL	8.eenL	.
16en	.	.
16c#	.	.
16AJJ)	16ffL	.
8DD'	16gg	.
.	16aaJJ)	.
!!LO:LB:g=z
=44	=44	=44
4.AAA^	(16aaLL	.
.	16gg)	.
.	(16gg	.
.	16ff	.
.	16een	.
.	16ddJJ	.
=45	=45	=45
(16aLL	8.eenL	.
16en	.	.
16c#	.	.
16AJJ)	16ffL	.
8DD'	16gg	.
.	16aaJJ	.
=46	=46	=46
4AAA^	16ggLL	.
.	16ff	.
.	16een	.
.	16dd	.
(8AA	16cc#	.
.	16eeJJ	.
=47	=47	=47
8BB-'L)	16ddLL	.
.	16ff	.
8GG'	16een	.
.	16gg	.
8AA'J	16ff	.
.	16eeJJ)	.
=48	=48	=48
8DD'	(16dLL	<
.	16dd	.
(8c#L	16en	.
.	16een	.
8dJ	16f	.
.	16ffJJ	.
!!LO:LB:g=z
=49	=49	=49
8B-L	16gLL	.
.	16gg	.
8F)	16a	.
.	16aa	.
8G'J	(16bn)	f
.	[16ddd^JJ	.
=50	=50	=50
4AA^	8dddL]	.
.	16ccc#L	.
.	16bb-X	.
(8A	16aa	.
.	16ggJJ	.
=51	=51	=51
8B-'L)	16ggLL	.
.	16ff	.
8G'	16een	.
.	16dd	.
8A'J	16dd	.
.	16cc#JJ)	.
=52	=52	=52
8DD'	(16dLL	p
.	16dd	.
(8c#L	16en	.
.	16een	.
8dJ	16f	.
.	16ffJJ	.
=53	=53	=53
8B-L	16gLL	.
.	16gg	.
8F)	16a	.
.	16aa	.
8G'J	16bn)	.
.	([16ddd^JJ	.
!!LO:LB:g=z
=54	=54	=54
4AA^	8dddL]	.
.	16ccc#L	.
.	16bb-X	.
(8A	16aa	<
.	16ggJJ	.
=55	=55	=55
8B-'L)	16ggLL	.
.	16ff	.
8G'	16een	.
.	16dd	.
8A'J	16dd	.
.	16cc#JJ	.
=56	=56	=56
(8DL	16ddLL	.
.	16b-	.
8DD	16a	.
.	16g	.
8EEnJ	16f	.
.	16enJJ	.
=57	=57	=57
8FF'L)	16dLL	.
.	16f	.
8GG'	16en	.
.	16g	.
8AA'J	16f	.
.	16eJJ	.
=58	=58	=58
4.DD^	4.d)	f
!!LO:LB:g=z
=59:|!|:	=59:|!|:	=59:|!|:
*>B	*>B	*>B
*^	*	*
!	!	!	!LO:DY:rj
4.d	(4D	(16ff#LL	f
.	.	16gg	.
.	.	16aa	.
.	.	16ee-X	.
.	8F#	16dd	.
.	.	16ccJJ	.
=60	=60	=60	=60
4.d	8G'L)	16b-LL	.
.	.	16cc	.
.	8A'	16dd	.
.	.	16b-	.
.	8B-'J	16a	.
.	.	16gJJ)	.
=61	=61	=61	=61
!	!	!	!LO:DY:rj
4.d	(4D	(16ff#LL	p
.	.	16gg	.
.	.	16aa	.
.	.	16ee-	.
.	8F#	16dd	.
.	.	16ccJJ	.
!!LO:LB:g=z
=62	=62	=62	=62
4.d	4G	16bnLL<	.
.	.	16cc	.
.	.	16dd	.
.	.	16a-	.
.	8Bn)	16g	.
.	.	16fJJ)	.
=63	=63	=63	=63
4.c	(8CL	(16ee-LL	f
.	.	16ff	.
.	8E-	16gg	.
.	.	16ee-	.
.	8FJ	16dd	.
.	.	16ccJJ	.
=64	=64	=64	=64
4.d	4G	16bnLL<	.
.	.	16cc	.
.	.	16dd	.
.	.	16a-	.
.	8Bn)	16g	.
.	.	16fJJ)	.
=65	=65	=65	=65
4.c	(8CL	(16ee-LL	p
.	.	16ff	.
.	8E-')	16gg	.
.	.	16ee-	.
.	8F'J	16dd	.
.	.	16ccJJ)	.
*v	*v	*	*
!!LO:LB:g=z
=66	=66	=66
.	(16ccqq	.
4.GG	(8.bnm<L)	.
.	16ank	.
.	8gJ)	.
=67	=67	=67
!	!	!LO:DY:rj
(16gLL	(8.ddL	f
16d	.	.
16Bn	.	.
16GJJ)	16ee-L	.
8CC'	16ff	.
.	16ggJJ)	.
=68	=68	=68
4.GGG^	(16ggLL	.
.	16ff)	.
.	(16ff	.
.	16ee-	.
.	16dd	.
.	16ccJJ	.
=69	=69	=69
!	!	!LO:DY:rj
(16gLL	8.ddL	p
16d	.	.
16Bn	.	.
16GJJ)	16ee-L	.
8CC'	16ff	.
.	16ggJJ)	.
!!LO:LB:g=z
=70	=70	=70
4.GGG^	(16ggLL	.
.	16ff)	.
.	(16ff	.
.	16ee-	.
.	16dd	.
.	16ccJJ	.
=71	=71	=71
(8GL	16ddLL	<
.	16ee-	.
8g)	16ff	.
.	16dd	.
8f'J	16cc	.
.	16bnJJ	.
=72	=72	=72
8en'L	16eenLL	.
.	16ff	.
8c'	16gg	.
.	16ee	.
8e'J	16dd	.
.	16ccJJ)	.
=73	=73	=73
(8FL	(16ccLL	.
.	16dd	.
8f)	16ee-X	.
.	16cc	.
8e-X'J	16b-	.
.	16aJJ	.
!!LO:LB:g=z
=74	=74	=74
8d'L	16ddLL	.
.	16ee-	.
8B-'	16ff	.
.	16a	.
8d'J	16g	.
.	16fJJ	.
=75	=75	=75
(8e-L	16gLL	.
.	16ee-	.
8f	16a	.
.	16ff	.
8gJ	16b-	.
.	16ggJJ	.
=76	=76	=76
8AL	16ccLL	.
.	16ee-	.
8B-')	16dd	.
.	16ff	.
8E-'J	16ee-	.
.	[16ddJJ)	.
=77	=77	=77
4.FF^	8ddL]	f
.	(16ccLM	.
.	16b-J)	.
.	8cc'J	.
!!LO:LB:g=z
=78	=78	=78
*	*^	*
*ped	*	*	*
!	!	!	!LO:DY:rj
(16fLL	4.ccc	16cccLL	f
16c	.	16cc	.
16A	.	16cc	.
16FJJ)	.	16cc	.
8FF'	.	16cc	.
.	.	16ccJJ	.
*	*v	*v	*
=79	=79	=79
*ped	*	*
4.BBB-^	(16dddLL	.
.	16bb-	.
.	16ff	.
.	16dd	.
.	16b-	.
.	16ddJJ)	.
=80	=80	=80
*	*^	*
*ped	*	*	*
(16fLL	4.ccc	16cccLL	.
16c	.	16cc	.
16A	.	16cc	.
16FJJ)	.	16cc	.
8FF'	.	16cc	.
.	.	16ccJJ	.
*	*v	*v	*
=81	=81	=81
*ped	*	*
4.BBB-^	(16dddLL	.
.	16bb-	.
.	16ff	.
.	16dd	.
.	16b-	.
.	16ddJJ)	.
!!LO:LB:g=z
=82	=82	=82
*	*^	*
*ped	*	*	*
(16fLL	4.ccc	16cccLL	.
16c	.	16cc	.
16A	.	16cc	.
16FJJ)	.	16cc	.
8FF'	.	16cc	.
.	.	16ccJJ	.
*	*v	*v	*
=83	=83	=83
*Xped	*	*
(8BBB-L	(16dddLL	.
.	16bb-	.
8CC	16aa	.
.	16gg	.
8DDJ	16gg	.
.	16ffJJ	.
=84	=84	=84
8EE-L	16ee-LL	.
.	16dd	.
8FF)	16dd	.
.	16cc	.
8FF'J	16b-	.
.	16aJJ)	.
=85	=85	=85
*ped	*	*
4.BBB-^	(16bb-LL	.
.	16ff	.
.	16dd	.
.	16b-	.
.	16dd	.
.	16ffJJ)	.
!!LO:LB:g=z
=86	=86	=86
*	*^	*
*ped	*	*	*
!	!	!	!LO:DY:rj
(16fLL	4.ccc	16cccLL	p
16c	.	16cc	.
16A	.	16cc	.
16FJJ)	.	16cc	.
8FF'	.	16cc	.
.	.	16ccJJ	.
*	*v	*v	*
=87	=87	=87
*Xped	*	*
4.BBB-^	(16dddLL	.
.	16bb-	.
.	16ff	.
.	16dd	.
.	16b-	.
.	16ddJJ)	.
=88	=88	=88
*	*^	*
*ped	*	*	*
(16fLL	4.ccc	16cccLL	.
16c	.	16cc	.
16A	.	16cc	.
16FJJ)	.	16cc	.
8FF'	.	16cc	.
.	.	16ccJJ	.
*	*v	*v	*
=89	=89	=89
*Xped	*	*
4.BBB-^	(16dddLL	.
.	16bb-	.
.	16ff	.
.	16dd	.
.	16b-	.
.	16ddJJ)	.
!!LO:LB:g=z
=90	=90	=90
*	*^	*
*ped	*	*	*
(16fLL	4.ccc	16cccLL	.
16c	.	16cc	.
16A	.	16cc	.
16FJJ)	.	16cc	.
8FF'	.	16cc	.
.	.	16ccJJ	.
*	*v	*v	*
=91	=91	=91
*Xped	*	*
(8BBB-L	(16dddLL	.
.	16bb-	.
8CC	16aa	.
.	16gg	.
8DDJ	16gg	.
.	16ffJJ	.
=92	=92	=92
8EE-L	16ee-LL	.
.	16dd	.
8FF)	16dd	.
.	16cc	.
8FF'J	16b-	.
.	16aJJ)	.
=93	=93	=93
(8B-L	(16dLL	<
.	16dd	.
8c	16e-	.
.	16ee-	.
8dJ	16f	.
.	16ffJJ	.
!!LO:LB:g=z
=94	=94	=94
8e-L	16gLL	.
.	16gg	.
8f)	16a	.
.	16aa	.
8g'J	16b-	.
.	16bb-JJ	.
=95	=95	=95
8F'L	16cccLL	f
.	16gg	.
8G'	16ff	.
.	16ee-	.
8A'J	16dd	.
.	16ccJJ	.
=96	=96	=96
8BB-'L	16bb-LL	.
.	16ff	.
8C'	16ee-	.
.	16dd	.
8D'J	16cc	.
.	16b-JJ	.
=97	=97	=97
(8E-L	16ggLL	.
.	16ee-	.
8F')	16dd	.
.	16cc	.
8FF'J	16b-	.
.	16aJJ)	.
!!LO:LB:g=z
=98	=98	=98
(8B-L	(16dLL	p
.	16dd	.
8c	16e-	.
.	16ee-	.
8dJ	16f	.
.	16ffJJ	.
=99	=99	=99
8e-L	16gLL	.
.	16gg	.
8f)	16a	.
.	16aa	.
8g'J	16b-	.
.	16bb-JJ	.
=100	=100	=100
8F'L	16cccLL	.
.	16gg	.
8G'	16ff	.
.	16ee-	.
8A'J	16dd	.
.	16ccJJ	.
=101	=101	=101
8BB-'L	16bb-LL	<
.	16ff	.
8C'	16ee-	.
.	16dd	.
8D'J	16cc	.
.	16b-JJ	.
!!LO:LB:g=z
=102	=102	=102
(8E-L	16ggLL	.
.	16ee-	.
8F')	16dd	.
.	16cc	.
8FF'J	16b-	.
.	16aJJ	.
=103	=103	=103
(8BB-L	16ffLL	.
.	16dd	.
8C	16cc	.
.	16b-	.
8DJ	16a	.
.	16gJJ	.
=104	=104	=104
8E-L	16fLL	.
.	16e-	.
8F')	16d	.
.	16c	.
8FF'J	16B-	.
.	16AJJ	.
=105	=105	=105
4.BBB-^	4.B-^)	f
==:|!	==:|!	==:|!
*-	*-	*-
!!!RDF**kern: N = linked
!!!RDF**kern: > = above
!!!RDF**kern: < = below
!!!RDF**kern: < = cres.
!!!PTL: Domenico Scarlatti: Opere complete per clavicembalo
!!!PED: Longo, Alessandro
!!!PPR: Ricordi
!!!PPP: Milan
!!!PDT: 1906-1913
!!!ENC: Craig Stuart Sapp
!!!END: 2009/02/16
!!!EED: Craig Stuart Sapp
!!!EEV: 2021/06/12
